X: 11
T: Missa De Sancto Martino / Kyrie
N: Derived from Obr1007a-Missa_De_Sancto_Martino-Kyrie.krn
C: Jacob Obrecht
%%abc-version 2.0
%%abcx-abcm2ps-target-version 5.9.1 (29 Sep 2008)
%%abc-creator hum2abc beta
%%abcx-conversion-date 2019/02/17 07:23:44
%%abc-edited-by Jesse Rodin
%%abc-edited-by Jesse Rodin 16/10/2009; Megan K. Eagen 20/10/2012
%%abcx-initial-encoding-date 2013/08/19/
%%humdrum-veritas 1765911424
%%humdrum-veritas-data 1862461371
%%linebreak <none>
%%barnumbers 0
L: 1/4
M: 3/1
Q: 1/2=120
%%staves [1 2 3 4]
V: 1 clef=treble
V: 2 clef=treble-8
V: 3 clef=treble-8
V: 4 clef=bass
K: F
[V:1] G12- | 
[V:2] d6c2_e4 | 
[V:3] G12 | 
[V:4] G,6C,2C,4 | 
[V:1] G8F4 | 
[V:2] d6G2d4 | 
[V:3] B12 | 
[V:4] G,6E,2D,4 | 
[V:1] E2G3FEDE4 | 
[V:2] G6A6 | 
[V:3] c12 | 
[V:4] C,8A,,4 | 
[V:1] D4z2D2F2G2 | 
[V:2] D2G3FB2A2B2 | 
[V:3] d12 | 
[V:4] B,,2G,,2B,,3C,D,2B,,2 | 
[V:1] A3Bc2A4F2 | 
[V:2] c8d4 | 
[V:3] A12 | 
[V:4] F,8D,4 | 
[V:1] E8E4 | 
[V:2] G4A4G4 | 
[V:3] c12 | 
[V:4] C,4A,,4C,4 | 
[V:1] D4z2G3DG2- | 
[V:2] G4d4z2d2 | 
[V:3] B12 | 
[V:4] G,,12 | 
[V:1] G2E2z2G3FED | 
[V:2] e2g3fedc2g2- | 
[V:3] G12 | 
[V:4] C,8C,4 | 
[V:1] C2G4E2D4 | 
[V:2] gfe2d2c4=B2 | 
[V:3] G12 | 
[V:4] C,3G,,B,,2C,2G,,4 | 
[V:1] C2E4F2G4 | 
[V:2] c8B4 | 
[V:3] G12 | 
[V:4] C,6D,2E,4 | 
[V:1] A8G4 | 
[V:2] A4f4e4 | 
[V:3] c12 | 
[V:4] F,8C,4 | 
[V:1] F2A3GF2E4 | 
[V:2] d2f2e2d4^c2 | 
[V:3] A12 | 
[V:4] D,3A,,C,2D,2A,,4 | 
[V:1] D4z4A4 | 
[V:2] d2f4e2f4 | 
[V:3] A12 | 
[V:4] D,6C,2D,4 | 
[V:1] A6GFE4 | 
[V:2] e6A2A4 | 
[V:3] c12 | 
[V:4] A,,8A,,4 | 
[V:1] D4z2D4G2 | 
[V:2] F2G3FDEF2G2 | 
[V:3] B12 | 
[V:4] B,,2G,,3A,,B,,C,D,2E,2 | 
[V:1] F2A3GG4^F2 | 
[V:2] D2d2_e4d4 | 
[V:3] A12 | 
[V:4] F,3E,/D,/C,4D,4 | 
[V:1] G12 ||  
[V:2] d12 ||  
[V:3] G12 ||  
[V:4] G,,12 ||  
[V:1]  [K:F] [K:clef=treble][M:2/1]z8 | 
[V:2]  [K:F] [K:clef=treble-8][M:2/1]d4e2d2- | 
[V:3]  [K:F] [K:clef=treble-8][M:2/1]G8 | 
[V:4]  [K:F] [K:clef=bass][M:2/1]z8 | 
[V:1] D4E2D2 | 
[V:2] d2G3AB2 | 
[V:3] B8 | 
[V:4] z8 | 
[V:1] E2G4F2 | 
[V:2] A2G2A4 | 
[V:3] c8 | 
[V:4] z8 | 
[V:1] G2F4ED | 
[V:2] G2B3cd2 | 
[V:3] d8 | 
[V:4] z8 | 
[V:1] E2F2E2A2- | 
[V:2] c6A2- | 
[V:3] A8 | 
[V:4] z8 | 
[V:1] A2G2A4 | 
[V:2] ABc2F4 | 
[V:3] c8 | 
[V:4] z8 | 
[V:1] D3EF2G2- | 
[V:2] GABcd2G2 | 
[V:3] B8 | 
[V:4] z8 | 
[V:1] GAB3AGF | 
[V:2] z2d3cBA | 
[V:3] G8 | 
[V:4] z8 | 
[V:1] E2D2z2D2 | 
[V:2] G2B3GB2 | 
[V:3] G8 | 
[V:4] z8 | 
[V:1] B,2D4CB, | 
[V:2] G2B4AG | 
[V:3] G8 | 
[V:4] z8 | 
[V:1] A,4z2A2- | 
[V:2] F8 | 
[V:3] c8 | 
[V:4] z8 | 
[V:1] A2GFE2F2- | 
[V:2] c8- | 
[V:3] A8 | 
[V:4] z8 | 
[V:1] F2E4A2- | 
[V:2] c8 | 
[V:3] A8 | 
[V:4] z8 | 
[V:1] A2G4FE | 
[V:2] C8 | 
[V:3] c8 | 
[V:4] z8 | 
[V:1] D2E2D2G2- | 
[V:2] G8 | 
[V:3] B8 | 
[V:4] z8 | 
[V:1] G2^FEF4 | 
[V:2] D8 | 
[V:3] A8 | 
[V:4] z8 | 
[V:1] G8 ||  
[V:2] d8 ||  
[V:3] G8 ||  
[V:4] z8 ||  
[V:1]  [K:F] [K:clef=treble][M:2/1]z8 | 
[V:2]  [K:F] [K:clef=treble-8][M:2/1]d6e2- | 
[V:3]  [K:F] [K:clef=treble-8][M:2/1]G8- | 
[V:4]  [K:F] [K:clef=bass][M:2/1]G,,3A,,B,,2C,2- | 
[V:1] z8 | 
[V:2] e2dcd2e2 | 
[V:3] G8 | 
[V:4] C,2B,,A,,B,,2C,2 | 
[V:1] D3EF2G2- | 
[V:2] d2f3edc | 
[V:3] B8- | 
[V:4] z8 | 
[V:1] G2FEF2G2 | 
[V:2] d4z2d2 | 
[V:3] B8 | 
[V:4] z8 | 
[V:1] z8 | 
[V:2] _e3dcBA2- | 
[V:3] c8- | 
[V:4] C,3D,E,2F,2- | 
[V:1] z8 | 
[V:2] A2GFG2A2 | 
[V:3] c8 | 
[V:4] F,2E,D,E,2F,2 | 
[V:1] F3GA2B2- | 
[V:2] B3AF2G2- | 
[V:3] d8- | 
[V:4] z8 | 
[V:1] B2AGA2B2 | 
[V:2] G2FEF2G2 | 
[V:3] d8 | 
[V:4] z8 | 
[V:1] z8 | 
[V:2] A2D4F2- | 
[V:3] A8- | 
[V:4] F,6D,2- | 
[V:1] z8 | 
[V:2] F2EDE2F2- | 
[V:3] A8 | 
[V:4] D,2C,B,,A,,2D,2 | 
[V:1] c6A2- | 
[V:2] FEC2z2F2- | 
[V:3] c8- | 
[V:4] z8 | 
[V:1] A2GFE2A2 | 
[V:2] F2G2A2F2 | 
[V:3] c8 | 
[V:4] z8 | 
[V:1] z8 | 
[V:2] G4F2G2- | 
[V:3] B8- | 
[V:4] _E,4D,2E,2- | 
[V:1] z8 | 
[V:2] G2FEF2D2 | 
[V:3] B8 | 
[V:4] E,2D,C,B,,4 | 
[V:1] _E4D2E2- | 
[V:2] C4z4 | 
[V:3] G8- | 
[V:4] C,4B,,2C,2- | 
[V:1] E2DCB,4 | 
[V:2] C4D4 | 
[V:3] G8 | 
[V:4] C,2B,,A,,G,,4 | 
[V:1] C4B,2C2- | 
[V:2] C4z2C2- | 
[V:3] G8- | 
[V:4] z8 | 
[V:1] C2B,A,G,4 | 
[V:2] CDEFG4- | 
[V:3] G8 | 
[V:4] z8 | 
[V:1] z8 | 
[V:2] G2E4DC | 
[V:3] G8- | 
[V:4] G,6E,2- | 
[V:1] z8 | 
[V:2] G4C4 | 
[V:3] G8 | 
[V:4] E,2D,C,G,4 | 
[V:1] G6E2- | 
[V:2] z8 | 
[V:3] c8- | 
[V:4] C,4z4 | 
[V:1] E2DCG4 | 
[V:2] z8 | 
[V:3] c8 | 
[V:4] z8 | 
[V:1] C4z4 | 
[V:2] c8- | 
[V:3] A8- | 
[V:4] A,6F,2- | 
[V:1] z8 | 
[V:2] c8 | 
[V:3] A8 | 
[V:4] F,2E,D,A,4 | 
[V:1] A6F2- | 
[V:2] d8 | 
[V:3] A8- | 
[V:4] D,8 | 
[V:1] F2EDA4 | 
[V:2] c8 | 
[V:3] A8 | 
[V:4] z8 | 
[V:1] A6F2- | 
[V:2] A8- | 
[V:3] c8- | 
[V:4] F,8 | 
[V:1] F2EDA4 | 
[V:2] A8 | 
[V:3] c8 | 
[V:4] F,4F,4 | 
[V:1] D3EF2G2- | 
[V:2] z4z2G2- | 
[V:3] B8- | 
[V:4] G,3F,D,2_E,2- | 
[V:1] GFD3EFG | 
[V:2] G2B3AF2 | 
[V:3] B8 | 
[V:4] E,D,B,,3C,D,=E, | 
[V:1] ABc3BAG | 
[V:2] z2F4A2- | 
[V:3] A8- | 
[V:4] F,G,A,3G,F,E, | 
[V:1] ^F2E2F4 | 
[V:2] ABc2A2d2- | 
[V:3] A8 | 
[V:4] D,2C,2D,4 | 
[V:1] G8- | 
[V:2] d2_e4dc | 
[V:3] G8- | 
[V:4] G,,8- | 
[V:1] G8- | 
[V:2] B6c2 | 
[V:3] G8- | 
[V:4] G,,8- | 
[V:1] G8 |]  
[V:2] d8 |]  
[V:3] G8 |]  
[V:4] G,,8 |]  



